docs/svgs/room-bedroom.svg

<svg viewBox="0 0 24 24" height="24px" width="24px" fill="#44739e" xmlns="http://www.w3.org/2000/svg"><title>hue:room-bedroom</title><desc>Source: https://github.com/arallsopp/hass-hue-icons</desc><path d="M 19.5 12 L 4.5 12 C 2.84375 12 1.5 13.34375 1.5 15 L 1.5 16.5 C 1.5 16.914062 1.835938 17.25 2.25 17.25 L 3 17.25 L 3 18 C 3 18.828125 3.671875 19.5 4.5 19.5 C 5.328125 19.5 6 18.828125 6 18 L 6 17.25 L 18 17.25 L 18 18 C 18 18.828125 18.671875 19.5 19.5 19.5 C 20.328125 19.5 21 18.828125 21 18 L 21 17.25 L 21.75 17.25 C 22.164062 17.25 22.5 16.914062 22.5 16.5 L 22.5 15 C 22.5 13.34375 21.15625 12 19.5 12 M 6.75 7.5 L 10.5 7.5 C 10.914062 7.5 11.25 7.835938 11.25 8.25 C 11.25 8.664062 10.914062 9 10.5 9 L 6.75 9 C 6.335938 9 6 8.664062 6 8.25 C 6 7.835938 6.335938 7.5 6.75 7.5 M 13.5 7.5 L 17.25 7.5 C 17.664062 7.5 18 7.835938 18 8.25 C 18 8.664062 17.664062 9 17.25 9 L 13.5 9 C 13.085938 9 12.75 8.664062 12.75 8.25 C 12.75 7.835938 13.085938 7.5 13.5 7.5 M 5.257812 10.5 L 18.742188 10.5 C 19.160156 10.5 19.5 10.160156 19.5 9.742188 L 19.5 6 C 19.5 5.171875 18.828125 4.5 18 4.5 L 6 4.5 C 5.171875 4.5 4.5 5.171875 4.5 6 L 4.5 9.742188 C 4.5 10.160156 4.839844 10.5 5.257812 10.5 "/></svg>

<svg viewBox="0 0 24 24" height="24px" width="24px" fill="#44739e" xmlns="http://www.w3.org/2000/svg"><title>hue:room-bedroom</title><desc>Source: https://github.com/arallsopp/hass-hue-icons</desc><path d="M19.5,12h-15c-1.66,0-3,1.34-3,3v1.5c0,0.41,0.34,0.75,0.75,0.75H3V18c0,0.83,0.67,1.5,1.5,1.5S6,18.83,6,18 v-0.75h12V18c0,0.83,0.67,1.5,1.5,1.5S21,18.83,21,18v-0.75h0.75c0.41,0,0.75-0.34,0.75-0.75V15C22.5,13.34,21.16,12,19.5,12 M6.75,7.5h3.75c0.41,0,0.75,0.34,0.75,0.75C11.25,8.66,10.91,9,10.5,9H6.75C6.34,9,6,8.66,6,8.25C6,7.84,6.34,7.5,6.75,7.5 M13.5,7.5h3.75C17.66,7.5,18,7.84,18,8.25C18,8.66,17.66,9,17.25,9H13.5c-0.41,0-0.75-0.34-0.75-0.75 C12.75,7.84,13.09,7.5,13.5,7.5 M5.26,10.5h13.48c0.42,0,0.76-0.34,0.76-0.76V6c0-0.83-0.67-1.5-1.5-1.5H6C5.17,4.5,4.5,5.17,4.5,6 v3.74C4.5,10.16,4.84,10.5,5.26,10.5"/></svg>
